!!! OTL: Berkowitz427
!!! Chapter: 1
!!! Section: IV
!!! Page: 106
!!! Mode: 
!!! Encoder: DJB
**kern
*staff1
*I"Piano
=1-
*clefC3
*k[f#c#]
*D:
*M4/4
8d\L
8c#\
8d\
[8e\J
8e\L]
8e\J
4d\
=2
4d#\
4e\
4c#\
4A/
=3
8g\L
8f#\
8g\
[8b\J
8b\L]
8a\J
4g\
=4
4f#\
4g\
4g#\
4a\
=5
8b\L
8a#\
8b\
[8dd\J
2dd\]
=6
8a\L
8g#\
8a\
[8dd\J
2dd\]
=7
!!linebreak:original
8g\L
8f#\
8g\
[8b\J
8b\L]
8a\J
4g\
=8
4f#\
4g\
4g#\
4a\
=9
8r
8b\L
8a#\
8b\J
4dd\
4b\
=10
8r
8a\L
8g#\
8a\J
2dd\
=11
8e\L
8d#\
8e\
[8g\J
8g\L]
8f#\J
4e\
=12
2d\
4dd\
4r
==
*-
